icons/Color/scalable/process-stop.svg

<svg height="16" viewBox="0 0 16 16" width="16" xmlns="http://www.w3.org/2000/svg"><g fill-rule="evenodd" stroke="#860000" transform="matrix(.3636101 0 0 .36359481 -.725179 .002945)"><path d="m15.591006.4919213h17.085305l12.821274 13.0944637v17.893645l-12.648599 12.016899h-17.430337l-12.9242633-12.838665v-17.194186z" fill="#c00"/><path d="m16.767175 10.5-4.267175 4.267175 7.535075 7.535075-7.535075 7.535075 4.267175 4.267176 7.535075-7.535076 7.535075 7.535076 4.267176-4.267176-7.535076-7.535075 7.535076-7.535075-4.267176-4.267175-7.535075 7.535075z" fill="#fff" stroke-linecap="round" stroke-linejoin="round"/></g></svg>

<?xml version="1.0" encoding="UTF-8" standalone="no"?>
<!-- Created with Inkscape (http://www.inkscape.org/) -->

<svg
   xmlns:dc="http://purl.org/dc/elements/1.1/"
   xmlns:cc="http://creativecommons.org/ns#"
   xmlns:rdf="http://www.w3.org/1999/02/22-rdf-syntax-ns#"
   xmlns:svg="http://www.w3.org/2000/svg"
   xmlns="http://www.w3.org/2000/svg"
   xmlns:sodipodi="http://sodipodi.sourceforge.net/DTD/sodipodi-0.dtd"
   xmlns:inkscape="http://www.inkscape.org/namespaces/inkscape"
   id="svg7384"
   height="16"
   width="16"
   version="1.1"
   sodipodi:docname="gimp-process-stop.svg"
   viewBox="0 0 16 16"
   inkscape:version="0.92pre1 unknown">
  <defs
     id="defs10" />
  <sodipodi:namedview
     pagecolor="#ffffff"
     bordercolor="#666666"
     borderopacity="1"
     objecttolerance="10"
     gridtolerance="10"
     guidetolerance="10"
     inkscape:pageopacity="0"
     inkscape:pageshadow="2"
     inkscape:window-width="1920"
     inkscape:window-height="1016"
     id="namedview8"
     showgrid="true"
     inkscape:zoom="43.1875"
     inkscape:cx="7.3603948"
     inkscape:cy="9.8523879"
     inkscape:window-x="0"
     inkscape:window-y="27"
     inkscape:window-maximized="1"
     inkscape:current-layer="svg7384">
    <inkscape:grid
       type="xygrid"
       id="grid4233" />
  </sodipodi:namedview>
  <metadata
     id="metadata90">
    <rdf:RDF>
      <cc:Work
         rdf:about="">
        <dc:format>image/svg+xml</dc:format>
        <dc:type
           rdf:resource="http://purl.org/dc/dcmitype/StillImage" />
        <dc:title>Gnome Symbolic Icon Theme</dc:title>
      </cc:Work>
    </rdf:RDF>
  </metadata>
  <title
     id="title9167">Gnome Symbolic Icon Theme</title>
  <g
     id="g4276"
     transform="matrix(0.3636101,0,0,0.36359481,-0.72517878,0.00294496)">
    <path
       inkscape:connector-curvature="0"
       sodipodi:nodetypes="ccccccccc"
       id="path9480"
       d="M 15.591006,0.4919213 H 32.676311 L 45.497585,13.586385 V 31.48003 L 32.848986,43.496929 H 15.418649 L 2.4943857,30.658264 V 13.464078 Z"
       style="fill:#cc0000;fill-opacity:1;fill-rule:evenodd;stroke:#860000;stroke-width:1;stroke-linecap:butt;stroke-linejoin:miter;stroke-miterlimit:4;stroke-dasharray:none;stroke-opacity:1" />
    <path
       inkscape:connector-curvature="0"
       id="path2787"
       d="M 16.767175,10.5 12.5,14.767175 20.035075,22.30225 12.5,29.837325 l 4.267175,4.267176 7.535075,-7.535076 7.535075,7.535076 4.267176,-4.267176 L 28.569425,22.30225 36.104501,14.767175 31.837325,10.5 24.30225,18.035075 Z"
       style="fill:#ffffff;fill-opacity:1;fill-rule:evenodd;stroke:#860000;stroke-width:0.99999958;stroke-linecap:round;stroke-linejoin:round;stroke-miterlimit:4;stroke-dasharray:none;stroke-opacity:1" />
  </g>
</svg>
